T: Bull Pup
M: 2/4
L: 1/8
K: Ddor
D>F AA | DF A>D | GB cB/c/ | GB d/c/B/A/ |DF AB | c/B/A BA | c/B/A Bc | d2 D :|fa d2 | fa dA/d/ | gf ed | g/f/e/d/ c/B/A/e/ |fa dA/d/ |fa d>A | c/B/A Bc | d3 :|
